X: 0
T: Austria
Z: Franz Joseph Hayden, 1797
Z: Public  domain
L: 1/4
M: 4/4
V: P1 name="Unnamed-000"
%%MIDI program 1 19
V: P2 name="Unnamed-001"
%%MIDI program 2 19
V: P3 name="Tempo Track"
%%MIDI program 3 -1
K: Eb
[V: P1]  [B,3/E3/] [B,/F/] [EG] [DF] | [FA] [EG] [D/F/]D/ [B,E] | [C/c/]D/ [EB] [FA] [EG] | [CF] [E/G/]E/ [D2B2] | [B,3/E3/] [B,/F/] [EG] [DF] | [FA] [EG] [D/F/]D/ [B,E] | [C/c/]D/ [EB] [FA] [EG] | [CF] [E/G/]E/ [D2B2] | [B,F] [B,G] [B,/F/]D/ B, | [C/A/]D/ [EG] [D/F/][B,/D/] B, | [B,B] [C/A/]D/ [E3/G3/] [E/G/] | [E3/=A3/] [E/A/] [D2B2] | [E3/e3/] [E/d/] [E/d/]c/ [EB] | [E3/c3/] [E/B/] [D/B/]A/ [EG] | [DF] [D/G/]A/ [E/B/]c/ [C/A/]F/ | [B,E] [D/G/]F/ E2- | E2z2|]
[V: P2]  [E,3/G,3/] [E,/A,/] [E,B,] [B,,B,] | [D,B,] [E,B,] [B,,A,] [E,G,] | A, [G,B,] [D,B,] [E,B,] | [A,,A,] [=A,,C] [B,,2F,2] | [E,3/G,3/] [E,/A,/] [E,B,] [B,,B,] | [D,B,] [E,B,] [B,,A,] [E,G,] | A, [G,B,] [D,B,] [E,B,] | [A,,A,] [=A,,C] [B,,2F,2] | [B,,D,] [B,,E,] [B,,/D,/]F,/ [B,,/A,/]G,/ | [B,,F,] [B,,/E,/]G,/ [B,,/B,/]F,/ [B,,/D,/]A,,/ | [G,,G,] [A,,/F,/]B,,/ [C,3/E,3/] [C,/C/] | [F,3/C3/] [F,,/F,/] [B,,2F,2] | [G,3/C3/] [G,/B,/] A, [E,G,] | A,3/ [G,/B,/] [F,B,] [E,B,] | [B,,B,] [A,,B,] [G,,/B,/]E,/ [A,,/C/]A,/ | [B,,G,] [B,,A,] [E,,2-E,2-G,2-] | [E,,2E,2G,2]z2|]
[V: P3]  z4|]

